src/img/icons/minetest-icon.svg

<svg xmlns="http://www.w3.org/2000/svg" xmlns:xlink="http://www.w3.org/1999/xlink" width="384pt" height="384pt" version="1.1" viewBox="0 0 384 384"> <defs> <filter id="alpha" width="100%" height="100%" x="0%" y="0%" filterUnits="objectBoundingBox"> <feColorMatrix in="SourceGraphic" type="matrix" values="0 0 0 0 1 0 0 0 0 1 0 0 0 0 1 0 0 0 1 0"/> </filter> <mask id="mask0"> <g filter="url(#alpha)"> <rect width="384" height="384" x="0" y="0" style="fill:rgb(0%,0%,0%);fill-opacity:0.2"/> </g> </mask> <clipPath id="clip1"> <rect width="384" height="384" x="0" y="0"/> </clipPath> <g id="surface5" clip-path="url(#clip1)"> <path style="fill:rgb(0%,0%,0%)" d="M 106.910156 151.378906 L 162.390625 183.410156 L 106.910156 215.441406 L 51.429688 183.410156 Z M 106.910156 151.378906"/> </g> <mask id="mask1"> <g filter="url(#alpha)"> <rect width="384" height="384" x="0" y="0" style="fill:rgb(0%,0%,0%);fill-opacity:0.101961"/> </g> </mask> <clipPath id="clip2"> <rect width="384" height="384" x="0" y="0"/> </clipPath> <g id="surface8" clip-path="url(#clip2)"> <path style="fill:rgb(0%,0%,0%)" d="M 301.09375 151.378906 L 342.707031 175.402344 L 301.09375 199.425781 L 259.484375 175.402344 Z M 301.09375 151.378906"/> </g> <mask id="mask2"> <g filter="url(#alpha)"> <rect width="384" height="384" x="0" y="0" style="fill:rgb(0%,0%,0%);fill-opacity:0.101961"/> </g> </mask> <clipPath id="clip3"> <rect width="384" height="384" x="0" y="0"/> </clipPath> <g id="surface11" clip-path="url(#clip3)"> <path style="fill:rgb(0%,0%,0%)" d="M 106.902344 23.25 L 48 57.269531 L 106.902344 91.273438 L 160.113281 60.554688 L 160.113281 53.96875 Z M 106.902344 23.25"/> </g> <mask id="mask3"> <g filter="url(#alpha)"> <rect width="384" height="384" x="0" y="0" style="fill:rgb(0%,0%,0%);fill-opacity:0.101961"/> </g> </mask> <clipPath id="clip4"> <rect width="384" height="384" x="0" y="0"/> </clipPath> <g id="surface14" clip-path="url(#clip4)"> <path style="fill:rgb(0%,0%,0%)" d="M 248.199219 184.914062 L 136.085938 248.304688 L 192.144531 280.664062 L 304.257812 217.273438 Z M 248.199219 184.914062"/> </g> </defs> <g> <path style="fill:rgb(74.117%,59.215%,46.666%)" d="M 23.6875 167.394531 L 23.6875 263.492188 L 192.144531 360.75 L 360.3125 261.332031 L 360.3125 169.550781 L 190.132812 71.296875 Z M 23.6875 167.394531"/> <path style="fill:rgb(20.000%,20.000%,20.000%)" d="M 64.015625 238.726562 L 48 229.480469 L 48 277.527344 L 134.648438 327.554688 L 134.648438 311.539062 L 120.78125 303.53125 L 120.78125 287.515625 L 104.054688 277.859375 L 104.054688 245.828125 L 64.015625 222.710938 Z M 64.015625 238.726562"/> <path style="fill:rgb(29.803%,30.980%,36.078%)" d="M 51.429688 279.507812 L 79.167969 263.492188 L 106.910156 279.507812 L 120.070312 287.105469 L 120.070312 303.121094 L 136.085938 312.371094 L 136.085938 328.386719 Z M 51.429688 279.507812"/> <path style="fill:rgb(100.000%,78.039%,18.823%)" d="M 204 143.371094 L 248.199219 168.890625 L 248.199219 184.90625 L 304.257812 217.273438 L 332.035156 201.257812 L 360.070312 185.347656 L 360.3125 201.585938 L 360.3125 169.550781 L 259.484375 111.339844 Z M 204 143.371094"/> <path style="fill:rgb(100.000%,82.352%,34.901%)" d="M 194.863281 138.09375 L 264.214844 98.054688 L 264.214844 114.070312 L 194.863281 154.113281 Z M 194.863281 138.09375"/> <path style="fill:rgb(4.705%,63.137%,36.862%)" d="M 204 63.289062 L 23.6875 167.394531 L 136.085938 232.289062 L 248.199219 168.890625 L 194.863281 138.09375 L 264.214844 98.054688 Z M 204 63.289062"/> <path style="fill:rgb(23.137%,54.509%,72.156%)" d="M 136.085938 248.304688 L 136.085938 264.320312 L 148.519531 271.5 L 148.519531 287.515625 L 192.144531 312.703125 L 288.242188 256.070312 L 288.242188 238.878906 L 304.257812 229.632812 L 304.257812 217.269531 L 248.199219 184.90625 Z M 136.085938 248.304688"/> <use mask="url(#mask0)" xlink:href="#surface5"/> <path style="fill:rgb(40.784%,29.803%,20.784%)" d="M 93.039062 175.402344 L 106.910156 183.410156 L 120.78125 175.402344 L 120.78125 127.355469 L 106.910156 119.347656 L 93.039062 127.355469 Z M 93.039062 175.402344"/> <path style="fill:rgb(3.137%,44.313%,25.882%)" d="M 48 117.367188 L 106.910156 151.378906 L 160.113281 120.664062 L 160.113281 53.964844 L 106.910156 23.25 L 48 57.261719 Z M 48 117.367188"/> <use mask="url(#mask1)" xlink:href="#surface8"/> <path style="fill:rgb(44.313%,29.411%,16.862%)" d="M 288.242188 175.988281 L 301.09375 183.410156 L 312.265625 176.960938 L 312.265625 109.78125 L 301.09375 103.332031 L 288.242188 111.925781 Z M 288.242188 175.988281"/> <path style="fill:none;stroke-width:5.338702;stroke:rgb(72.156%,9.019%,29.803%);stroke-opacity:0.996078;stroke-dasharray:5.338701,5.338701;stroke-dashoffset:0.25" d="M 124.052083 -123.354167 L 114.807292 -128.692708" transform="matrix(0.75,0,0,0.75,0,348)"/> <path style="fill:rgb(45.098%,46.274%,50.196%)" d="M 360.3125 205.277344 L 328.28125 223.769531 L 328.28125 231.78125 L 312.265625 241.027344 L 312.265625 257.042969 L 296.25 266.289062 L 296.25 298.320312 L 360.3125 261.332031 Z M 360.3125 205.277344"/> <use mask="url(#mask2)" xlink:href="#surface11"/> <use mask="url(#mask3)" xlink:href="#surface14"/> </g> </svg>

<svg width="512" height="512" version="1.1" viewBox="0 0 384 384" xmlns="http://www.w3.org/2000/svg"><path d="m23.688 167.39v96.098l168.46 97.258 168.17-99.418v-91.781l-170.18-98.254z" fill="#bd9775"/><path d="m64.016 238.73-16.016-9.2461v48.047l86.648 50.027v-16.016l-13.867-8.0078v-16.016l-16.727-9.6562v-32.031l-40.039-23.117z" fill="#333"/><path d="m51.43 279.51 27.738-16.016 27.742 16.016 13.16 7.5977v16.016l16.016 9.25v16.016z" fill="#4a4c5c"/><path d="m204 143.37 44.199 25.52v16.016l56.059 32.367 27.777-16.016 28.035-15.91 0.24219 16.238v-32.035l-100.83-58.211z" fill="#ffc72e"/><path d="m194.86 138.09 69.352-40.039v16.016l-69.352 40.043z" fill="#ffd157"/><path d="m204 63.289-180.31 104.11 112.4 64.895 112.11-63.398-53.336-30.797 69.352-40.039z" fill="#0aa15c"/><path d="m259.48 175.4 41.609 24.023 41.613-24.023-41.613-24.023z" opacity=".1"/><path d="m136.09 248.3v16.016l12.434 7.1797v16.016l43.625 25.188 96.098-56.633v-17.191l16.016-9.2461v-12.363l-56.059-32.363z" fill="#3a8ab8"/><path d="m106.91 215.44 55.48-32.031-55.48-32.031-55.48 32.031z" opacity=".1"/><path d="m93.039 175.4 13.871 8.0078 13.871-8.0078v-48.047l-13.871-8.0078-13.871 8.0078z" fill="#664a33"/><path d="m48 117.37 58.91 34.012 53.203-30.715v-66.699l-53.203-30.715-58.91 34.012z" fill="#07703f"/><path d="m288.24 175.99 12.852 7.4219 11.172-6.4492v-67.18l-11.172-6.4492-12.852 8.5938z" fill="#704a28"/><path d="m93.039 255.48-6.9336-4.0039" fill="none" stroke="#b8174a" stroke-dasharray="4.00402575, 4.00402575" stroke-dashoffset=".25" stroke-opacity=".99608" stroke-width="4.004"/><path d="m360.31 205.28-32.031 18.492v8.0117l-16.016 9.2461v16.016l-16.016 9.2461v32.031l64.062-36.988z" fill="#73757f"/><g fill="#050505"><path d="m136.09 248.3 112.11-63.398 56.059 32.363-112.11 63.395z" opacity=".1"/><path d="m48 57.27-0.03174 5.7215 58.934 28.283 53.211-30.719v-6.5859l-53.211-30.719z" opacity=".3"/><path d="m288.24 111.93 12.852-8.5938 11.172 6.4492-12.377 8.0694z" opacity=".3"/></g></svg>
